svg/ug.svg

<?xml version="1.0" encoding="UTF-8"?>
<svg width="900" height="600" xmlns="http://www.w3.org/2000/svg">
  <rect width="900" height="600"/>
  <rect y="100" width="900" height="100" fill="#fcdc04"/>
  <rect y="200" width="900" height="100" fill="#d90000"/>
  <rect y="400" width="900" height="100" fill="#fcdc04"/>
  <rect y="500" width="900" height="100" fill="#d90000"/>
  <circle cx="450" cy="300" r="93.5" fill="#fff"/>
  <g stroke="#000">
    <path d="m433.52 228.39-6.0644-11.17c2.3401-2.3401 6.2772-4.149 12.554-4.149 0 0.42563-0.63844 12.234-0.63844 12.234z" fill="#d90000"/>
    <path d="m439.37 225.41 0.85125-12.341s12.554-0.74404 19.362 7.4468c0.1064-0.1064-6.702 9.5742-6.702 9.5742z" fill="#fcdc04"/>
    <path d="m453.1 229.99 6.17-9.5742c4.149 4.3619 5.8508 7.4468 6.4892 12.128 0.10641 0.10641-9.787 2.4466-9.787 2.3401s-2.7658-4.7875-2.8722-4.8939z" fill="#d90000"/>
    <path d="m436.61 388.07s11.596-13.298 34.149-10.425c-3.4042-5.5323-14.362-4.8939-14.362-4.8939s-3.4042-25.851-0.74484-27.128c2.6594-1.2769 13.936 0.10641 13.936 0.10641 1.4889 0 4.0426-4.0426 2.0217-6.5956-2.0217-2.5538-7.9789-12.341-5.5323-14.256 2.4474-1.9145 15.745 1.0641 15.745 1.0641l-37.553-48.085s-3.8298-18.085 3.8298-26.809c9.2558-7.6597 8.2981-15.958 7.9789-15.851-1.2769-8.4045-14.042-14.469-22.66-6.702-5.1067 6.17-1.7025 10.851-1.7025 10.851s-13.404 3.617-13.936 5.9572c-0.53203 2.341 15.107-0.42481 15.107-0.42481l-1.4897 10.745s-30.426 27.659-7.1276 51.596c0.21282-0.10641 0.74485-1.0641 0.74485-1.0641s8.1917 10.107 16.808 12.341c8.0853 8.2981 7.3413 7.0212 7.3413 7.0212s1.5953 13.086 0.10641 15.639c-2.0217-0.63844-22.66-1.3825-25.746-0.21281-2.7658 0.85126-13.404 0.31922-10.745 17.66 2.0209-4.6811 3.8298-8.8302 3.8298-8.8302s-0.31922 6.2764 2.2345 8.5109c-0.42563-6.5964 2.4465-11.064 2.4465-11.064s0.53204 7.234 2.1273 8.2973c1.5961 1.0641 1.5961-11.702 10.426-10.638 8.8293 1.0641 15.213 0.74485 15.213 0.74485s2.9786 25 2.0209 27.341c-6.3836-1.4897-21.596 0.63844-22.553 4.4683 8.9357-0.53204 13.086 0.53122 13.086 0.53122s-7.234 6.3836-5.0003 10.107z"/>
    <path d="m440.19 251.66s-22.139 24.402-12.588 43.075c0.50848-2.6041 0.28673-4.24 0.60595-4.1336-0.53203-0.31922 2.7455 2.2467 2.4961 1.7472 0.06986-1.35-0.99827-4.2433-0.99827-4.2433 0.99827 0.24936 1.9974 0.49954 2.9956 0.7489-0.5824-1.0819-1.1656-2.1631-1.748-3.245 1.415 0.16652 2.8291 0.33222 4.2441 0.49873 0 0-1.4978-3.9939-0.99828-3.9939 0.49874 0 3.4944 0.24937 3.4944 0.24937-6.2959-11.299-0.35658-20.682 2.4961-30.704z" fill="#9ca69c" stroke="#9ca69c"/>
    <path d="m447.88 230.73s1.1705 8.4045-3.4042 10.851c-0.74484 0.53203-3.617 1.4897-3.1914 3.1922 0.53203 2.3401 1.8081 1.9145 3.617 1.4889 4.7867-0.85125 10.319-11.064 2.9786-15.532z" fill="#9ca69c" stroke="#9ca69c"/>
    <circle cx="438" cy="238" r="1.8" fill="#fff" stroke="none"/>
    <path d="m432.56 244.99c-1.1705 0.95766-7.3404 7.3413-1.2769 9.6814 6.2772-1.7025 4.5747-2.8722 5.958-4.2555 0.03574-2.8722-3.1207-3.617-4.6811-5.4259z" fill="#d90000"/>
    <path d="m445.97 305.31c-0.31922 1.3833-1.7017 6.4892 0.21281 10.425 5.3195-2.2337 7.7661-1.5961 9.575-0.42562-4.361-3.5106-6.0636-5.0003-9.7878-9.9998z" fill="#9ca69c" stroke="#9ca69c"/>
    <path d="m455.12 329.46 0.31922 11.915s4.1491 0.74485 6.0636 0c1.9153-0.74485-0.10641-8.2981-6.3828-11.915z" fill="#fff" stroke="#fff"/>
    <path d="m485.22 330.94s-7.6597-18.511-27.234-23.192c-19.575-4.6811-17.022-25.532-15.426-26.809 0.85126-1.8089 1.4897-4.5747 7.1276-1.9145 5.6388 2.6594 31.596 15.744 35.32 16.383 3.7234 0.63844 0.53203 35.958 0.21281 35.533z" fill="#9ca69c"/>
    <path d="m466.61 307.65c-0.31922 0.21281 26.17 15.638 18.192 28.936 7.5541-5.0003 5.1067-13.723 5.1067-13.723s6.17 16.064-8.8301 23.937c1.5961 1.3833 2.6602 1.0632 2.6602 1.0632l-2.5538 2.5538s-1.1705 1.9145 8.9366-2.9794c-2.7666 2.2346-2.9786 3.8298-2.9786 3.8298s0.74404 2.1281 7.3404-3.617c-5.3195 5.7452-6.49 8.7237-6.49 8.6173 14.362-1.2769 45.639-47.979-9.8934-61.809 2.9794 3.0858 2.553 2.6602 2.553 2.6602z" fill="#d90000"/>
    <path d="m467.78 303.07c3.617 2.553 4.8931 3.4042 5.3187 4.6811-3.2978-0.74404-6.2764-0.53204-6.2764-0.53204s-7.1276-6.8084-8.4045-7.3404c-0.95766 0-6.4892-3.5106-6.4892-3.5106-2.7658-1.3833-5.3187-10.957 4.8939-8.1917 10.531 4.9995 12.021 5.4259 12.021 5.4259 4.1848 1.3118 8.3688 2.6244 12.554 3.9362 2.4116 2.6951 4.8224 5.3902 7.234 8.0853 0 0-12.872-6.3836-14.468-6.49 3.5106 2.8722 5.5323 6.8084 5.5323 6.8084-4.0784-1.1705-7.6239-2.2337-11.915-2.8722z" fill="#fff"/>
    <path d="m417.67 245.94s12.341-2.9786 13.83-2.553" stroke="#fff"/>
  </g>
</svg>

<?xml version="1.0" encoding="UTF-8"?>
<svg xmlns="http://www.w3.org/2000/svg" width="900" height="600">
	<rect width="900" height="600"/>
	<rect y="100" width="900" height="100" fill="#fcdc04"/>
	<rect y="200" width="900" height="100" fill="#d90000"/>
	<rect y="400" width="900" height="100" fill="#fcdc04"/>
	<rect y="500" width="900" height="100" fill="#d90000"/>
	<circle cx="450" cy="300" r="93.5" fill="#fff"/>
	<g stroke="#000">
		<path d="M 433.52031,228.39062 L 427.45593,217.22033 C 429.79607,214.8802 433.73312,213.07128 440.0095,213.07128 C 440.0095,213.49691 439.37106,225.30563 439.37106,225.30563 z" fill="#d90000"/>
		<path d="M 439.37106,225.41204 L 440.22231,213.07128 C 440.22231,213.07128 452.77588,212.32724 459.5843,220.51813 C 459.6907,220.41173 452.88229,230.09231 452.88229,230.09231 z" fill="#fcdc04"/>
		<path d="M 453.0951,229.98591 L 459.26508,220.41173 C 463.41413,224.7736 465.11583,227.85858 465.75427,232.53967 C 465.86068,232.64608 455.96728,234.98622 455.96728,234.87981 C 455.96728,234.7734 453.20151,230.09231 453.0951,229.98591 z" fill="#d90000"/>
		<path d="M 436.60529,388.07318 C 436.60529,388.07318 448.2012,374.77476 470.75458,377.64774 C 467.35037,372.1154 456.3929,372.75384 456.3929,372.75384 C 456.3929,372.75384 452.9887,346.90266 455.64806,345.62578 C 458.30741,344.3489 469.5841,345.73219 469.5841,345.73219 C 471.07299,345.73219 473.62675,341.68954 471.60583,339.13659 C 469.5841,336.58282 463.62694,326.79583 466.07349,324.88051 C 468.52085,322.966 481.81845,325.94457 481.81845,325.94457 L 444.26496,277.85924 C 444.26496,277.85924 440.43513,259.77414 448.09479,251.0504 C 457.35057,243.39073 456.3929,235.09262 456.07368,235.19903 C 454.7968,226.79451 442.03123,220.73014 433.4139,228.49702 C 428.30718,234.667 431.71139,239.34808 431.71139,239.34808 C 431.71139,239.34808 418.30738,242.9651 417.77534,245.30524 C 417.24331,247.64619 432.88186,244.88043 432.88186,244.88043 L 431.39217,255.62508 C 431.39217,255.62508 400.96631,283.28436 424.26453,307.22103 C 424.47735,307.11462 425.00938,306.15696 425.00938,306.15696 C 425.00938,306.15696 433.20108,316.26399 441.8176,318.49772 C 449.9029,326.79583 449.15886,325.51895 449.15886,325.51895 C 449.15886,325.51895 450.75415,338.60455 449.26527,341.1575 C 447.24354,340.51906 426.60548,339.77503 423.51969,340.94469 C 420.75392,341.79595 410.11567,341.26391 412.77503,358.60498 C 414.79595,353.92389 416.60487,349.77483 416.60487,349.77483 C 416.60487,349.77483 416.28565,356.05121 418.83941,358.28576 C 418.41378,351.68935 421.28595,347.22188 421.28595,347.22188 C 421.28595,347.22188 421.81799,354.45592 423.41328,355.51918 C 425.00938,356.58325 425.00938,343.81686 433.83953,344.88093 C 442.66886,345.945 449.05246,345.62578 449.05246,345.62578 C 449.05246,345.62578 452.03104,370.6257 451.07337,372.96665 C 444.68977,371.47696 429.47766,373.60509 428.52,377.43493 C 437.45573,376.90289 441.6056,377.96615 441.6056,377.96615 C 441.6056,377.96615 434.37156,384.34975 436.60529,388.07318 z"/>
		<path d="M 440.19145,251.66041 C 440.19145,251.66041 418.05232,276.06251 427.60376,294.73569 C 428.11224,292.13157 427.89049,290.49566 428.20971,290.60207 C 427.67768,290.28285 430.95517,292.8488 430.7058,292.34925 C 430.77566,290.99927 429.70753,288.10598 429.70753,288.10598 C 430.7058,288.35534 431.70489,288.60552 432.70317,288.85488 C 432.12077,287.77295 431.53756,286.69182 430.95517,285.60988 C 432.37014,285.7764 433.78429,285.9421 435.19926,286.10861 C 435.19926,286.10861 433.70144,282.1147 434.20098,282.1147 C 434.69972,282.1147 437.69535,282.36407 437.69535,282.36407 C 431.39948,271.06545 437.33877,261.68215 440.19145,251.66041 z" fill="#9ca69c" stroke="#9ca69c"/>
		<path d="M 447.88198,230.73075 C 447.88198,230.73075 449.05246,239.13527 444.47777,241.58182 C 443.73293,242.11385 440.86075,243.07151 441.28638,244.77402 C 441.81841,247.11416 443.09448,246.68853 444.9034,246.2629 C 449.69008,245.41165 455.22243,235.19903 447.88198,230.73075 z" fill="#9ca69c" stroke="#9ca69c"/>
		<circle cx="438" cy="238" r="1.8" fill="#fff" stroke="none"/>
		<path d="M 432.56264,244.98602 C 431.39217,245.94368 425.2222,252.32728 431.28576,254.66742 C 437.56295,252.96491 435.86044,251.79525 437.24373,250.41196 C 437.27947,247.53979 434.12301,246.79494 432.56264,244.98602 z" fill="#d90000"/>
		<path d="M 445.96666,305.30652 C 445.64744,306.68981 444.26496,311.79571 446.17947,315.73195 C 451.499,313.49822 453.94555,314.13585 455.75446,315.30633 C 451.39341,311.79571 449.6909,310.30602 445.96666,305.30652 z" fill="#9ca69c" stroke="#9ca69c"/>
		<path d="M 455.11602,329.45519 L 455.43524,341.37032 C 455.43524,341.37032 459.5843,342.11517 461.49881,341.37032 C 463.41413,340.62547 461.3924,333.07221 455.11602,329.45519 z" fill="#fff" stroke="#fff"/>
		<path d="M 485.22266,330.94488 C 485.22266,330.94488 477.56299,312.43415 457.98819,307.75307 C 438.4134,303.07198 440.96635,282.22111 442.56245,280.94423 C 443.41371,279.13531 444.05215,276.36954 449.69008,279.02971 C 455.32883,281.68907 481.28642,294.77387 485.00985,295.41231 C 488.73327,296.05075 485.54188,331.37051 485.22266,330.94488 z" fill="#9ca69c"/>
		<path d="M 466.60552,307.64666 C 466.2863,307.85947 492.77592,323.2844 484.79703,336.58282 C 492.35111,331.58251 489.90375,322.85959 489.90375,322.85959 C 489.90375,322.85959 496.07372,338.92377 481.07361,346.79626 C 482.66971,348.17954 483.73378,347.85951 483.73378,347.85951 L 481.18001,350.41328 C 481.18001,350.41328 480.00954,352.32779 490.11656,347.43388 C 487.34999,349.66843 487.13798,351.26372 487.13798,351.26372 C 487.13798,351.26372 487.88202,353.39185 494.47843,347.6467 C 489.1589,353.39185 487.98843,356.37043 487.98843,356.26403 C 502.3501,354.98715 533.62722,308.2851 478.09503,294.45465 C 481.07442,297.54044 480.64798,297.11482 480.64798,297.11482 z" fill="#d90000"/>
		<path d="M 467.776,303.07198 C 471.39302,305.62493 472.66909,306.47618 473.09472,307.75307 C 469.79692,307.00903 466.81834,307.22103 466.81834,307.22103 C 466.81834,307.22103 459.6907,300.41262 458.41382,299.88058 C 457.45616,299.88058 451.92463,296.36997 451.92463,296.36997 C 449.15886,294.98668 446.60591,285.4125 456.81853,288.17827 C 467.34956,293.17776 468.83926,293.6042 468.83926,293.6042 C 473.02405,294.91601 477.20803,296.22864 481.39283,297.54044 C 483.80444,300.23554 486.21525,302.93064 488.62687,305.62574 C 488.62687,305.62574 475.75489,299.24214 474.15879,299.13574 C 477.6694,302.00791 479.69113,305.94415 479.69113,305.94415 C 475.61274,304.77367 472.0672,303.71042 467.776,303.07198 z" fill="#fff"/>
		<path d="M 417.66893,245.94368 C 417.66893,245.94368 430.00969,242.9651 431.49858,243.39073" stroke="#fff"/>
	</g>
</svg>
